media/css-logo.svg

<svg xmlns="http://www.w3.org/2000/svg" width="150" height="150" viewBox="0 0 48 48"><path fill="#0277BD" d="M41 5H7l3 34 14 4 14-4z"/><path fill="#039BE5" d="M24 8v31.9l11.2-3.2L37.7 8z"/><path fill="#FFF" d="M33.1 13H24v4h4.9l-.3 4H24v4h4.4l-.3 4.5-4.1 1.4v4.2l7.9-2.6.7-11.5z"/><path fill="#EEE" d="M24 13v4h-8.9l-.3-4zm-4.6 8 .2 4H24v-4zm.4 6h-4l.3 5.5 7.9 2.6v-4.2l-4.1-1.4z"/></svg>

<svg xmlns="http://www.w3.org/2000/svg"  viewBox="0 0 48 48" width="150px" height="150px"><path fill="#0277BD" d="M41,5H7l3,34l14,4l14-4L41,5L41,5z"/><path fill="#039BE5" d="M24 8L24 39.9 35.2 36.7 37.7 8z"/><path fill="#FFF" d="M33.1 13L24 13 24 17 28.9 17 28.6 21 24 21 24 25 28.4 25 28.1 29.5 24 30.9 24 35.1 31.9 32.5 32.6 21 32.6 21z"/><path fill="#EEE" d="M24,13v4h-8.9l-0.3-4H24z M19.4,21l0.2,4H24v-4H19.4z M19.8,27h-4l0.3,5.5l7.9,2.6v-4.2l-4.1-1.4L19.8,27z"/></svg>
